actions/24/kdenlive-split-audio.svg

<?xml version="1.0" encoding="UTF-8" standalone="no"?>
<svg
   width="24"
   height="24"
   version="1.1"
   id="svg9"
   sodipodi:docname="kdenlive-split-audio.svg"
   inkscape:version="1.1.2 (0a00cf5339, 2022-02-04)"
   xmlns:inkscape="http://www.inkscape.org/namespaces/inkscape"
   xmlns:sodipodi="http://sodipodi.sourceforge.net/DTD/sodipodi-0.dtd"
   xmlns="http://www.w3.org/2000/svg"
   xmlns:svg="http://www.w3.org/2000/svg">
  <sodipodi:namedview
     id="namedview11"
     pagecolor="#000000"
     bordercolor="#666666"
     borderopacity="1.0"
     inkscape:pageshadow="2"
     inkscape:pageopacity="0"
     inkscape:pagecheckerboard="0"
     showgrid="false"
     inkscape:zoom="28.416667"
     inkscape:cx="11.982405"
     inkscape:cy="11.964809"
     inkscape:window-width="1886"
     inkscape:window-height="967"
     inkscape:window-x="0"
     inkscape:window-y="29"
     inkscape:window-maximized="1"
     inkscape:current-layer="g7" />
  <defs
     id="defs3">
    <style
       id="current-color-scheme"
       type="text/css">
   .ColorScheme-Text { color:#eeeeec; } .ColorScheme-Highlight { color:#367bf0; } .ColorScheme-NeutralText { color:#ffcc44; } .ColorScheme-PositiveText { color:#3db47e; } .ColorScheme-NegativeText { color:#dd4747; }
  </style>
  </defs>
  <g
     transform="translate(4,4)"
     id="g7">
    <path
       style="fill:currentColor"
       class="ColorScheme-Text"
       d="M 1.7847,2.1055 C 0.84673,2.28 1.0113,3.2676 1.0113,3.2676 L 1.4624,6 H 4.4043 L 5.1895008,4.5740731 v 0 L 6.0961464,4.5722034 7.7989,6 H 10 l 0.583368,-0.8278015 v 0 L 11.28839,5.0877099 12.531,6 H 15 L 14.137,0.84964 C 14.013,0.10718 13.457,-0.00192 13.186,2.5219e-5 Z M 1,7 V 8 H 2 V 7 Z M 3,7 V 8 H 4 V 7 Z M 5,7 V 8 H 6 V 7 Z M 7,7 V 8 H 8 V 7 Z m 2,0 v 1 h 1 V 7 Z m 2,0 v 1 h 1 V 7 Z m 2,0 v 1 h 1 V 7 Z m 2,0 v 1 h 1 V 7 Z M 1,9 v 3 H 4 L 7.3499795,15.34998 8,15.151427 v 0 V 9 Z m 9,0 v 2.351066 l 0.556191,0.273281 c 0.198224,-0.107448 -0.171791,0.142224 0,0 C 11.311721,10.998851 11.789,10.059168 11.789,9 Z m 4,0 c 0,2.57 -1.68,4.76 -4,5.5 V 16 c 3.15,-0.78 5.5,-3.6 5.5,-7 z"
       id="path5"
       sodipodi:nodetypes="ccccccccccccccccccccccccccccccccccccccccccccccccccccccccccccccccccccsccccccc" />
  </g>
</svg>

<svg xmlns="http://www.w3.org/2000/svg" width="24" height="24" version="1.1">
 <defs>
  <style id="current-color-scheme" type="text/css">
   .ColorScheme-Text { color:#eeeeec; } .ColorScheme-Highlight { color:#367bf0; } .ColorScheme-NeutralText { color:#ffcc44; } .ColorScheme-PositiveText { color:#3db47e; } .ColorScheme-NegativeText { color:#dd4747; }
  </style>
 </defs>
 <g transform="translate(4,4)">
  <path style="fill:currentColor" class="ColorScheme-Text" d="M 1.7847,2.1055 C 0.84673,2.28 1.0113,3.2676 1.0113,3.2676 L 1.4624,6 H 4.4043 L 5.4766,4.0527 7.7989,6 H 10 L 10.863,4.7754 12.531,6 H 15 L 14.137,0.84964 C 14.013,0.10718 13.457,-0.00192 13.186,2.5219e-5 Z M 1,7 V 8 H 2 V 7 Z M 3,7 V 8 H 4 V 7 Z M 5,7 V 8 H 6 V 7 Z M 7,7 V 8 H 8 V 7 Z M 9,7 V 8 H 10 V 7 Z M 11,7 V 8 H 12 V 7 Z M 13,7 V 8 H 14 V 7 Z M 15,7 V 8 H 16 V 7 Z M 1,9 V 12 H 4 L 8,16 V 9 Z M 10,9 V 12 C 11.07,11.42 11.789,10.3 11.789,9 Z M 14,9 C 14,11.57 12.32,13.76 10,14.5 V 16 C 13.15,15.22 15.5,12.4 15.5,9 Z"/>
 </g>
</svg>
